logos/apiary.svg

<?xml version="1.0" encoding="UTF-8" standalone="no"?>
<svg width="256px" height="259px" viewBox="0 0 256 259" version="1.1" xmlns="http://www.w3.org/2000/svg" xmlns:xlink="http://www.w3.org/1999/xlink" preserveAspectRatio="xMidYMid">
    <defs>
        <linearGradient x1="100.011588%" y1="49.9905059%" x2="-6.48195737e-10%" y2="49.9905059%" id="linearGradient-1">
            <stop stop-color="#37BDA6" offset="0%"></stop>
            <stop stop-color="#8AD3B8" offset="100%"></stop>
        </linearGradient>
        <linearGradient x1="100.011588%" y1="49.9980936%" x2="-3.88862804e-09%" y2="49.9980936%" id="linearGradient-2">
            <stop stop-color="#4BB6AD" offset="50%"></stop>
            <stop stop-color="#78BBC1" offset="100%"></stop>
        </linearGradient>
        <linearGradient x1="-0.0184384384%" y1="49.9980936%" x2="100.023183%" y2="49.9980936%" id="linearGradient-3">
            <stop stop-color="#4379A7" offset="0%"></stop>
            <stop stop-color="#7CC9B8" offset="100%"></stop>
        </linearGradient>
    </defs>
	<g>
		<path d="M127.693413,36.8670659 L127.693413,110.447904 L191.54012,73.5808383 L191.54012,0 L127.693413,36.8670659 L127.693413,36.8670659 Z" opacity="0.5" fill="#13A049"></path>
		<path d="M127.693413,36.8670659 L63.8467066,0 L63.8467066,73.7341317 L127.693413,110.601198 L127.693413,36.8670659 L127.693413,36.8670659 Z" opacity="0.5" fill="#A2CC39"></path>
		<path d="M191.54012,0 L127.693413,36.8670659 L63.8467066,0 L0,36.8670659 L127.693413,110.601198 L255.31018,36.8670659 L191.54012,0 L191.54012,0 Z" opacity="0.9" fill="url(#linearGradient-1)"></path>
		<path d="M127.693413,110.601198 L0,36.8670659 L0,110.601198 L63.8467066,147.468263 L63.8467066,221.125749 L127.693413,257.992814 L191.54012,221.125749 L191.54012,147.468263 L255.31018,110.601198 L255.31018,36.8670659 L127.693413,110.601198 L127.693413,110.601198 Z" fill="url(#linearGradient-2)"></path>
		<path d="M127.693413,110.601198 L127.693413,257.992814 L191.54012,221.125749 L191.54012,147.468263 L255.31018,110.601198 L255.31018,36.8670659 L127.693413,110.601198 L127.693413,110.601198 Z" fill="url(#linearGradient-3)"></path>
		<path d="M127.693413,184.258683 L127.693413,257.992814 L191.54012,221.125749 L127.693413,184.258683 L127.693413,184.258683 Z" opacity="0.05" fill="#231F20"></path>
		<path d="M127.693413,258.146108 L127.693413,184.411976 L63.8467066,221.279042 L127.693413,258.146108 L127.693413,258.146108 Z" opacity="0.1" fill="#231F20"></path>
		<path d="M63.8467066,73.7341317 L0,110.601198 L63.8467066,147.468263 L127.693413,110.601198 L63.8467066,73.7341317 L63.8467066,73.7341317 Z" opacity="0.05" fill="#231F20"></path>
		<path d="M191.54012,73.7341317 L127.693413,110.601198 L191.54012,147.468263 L255.31018,110.601198 L191.54012,73.7341317 L191.54012,73.7341317 Z" opacity="0.05" fill="#231F20"></path>
	</g>
</svg>

<svg preserveAspectRatio="xMidYMid" viewBox="0 0 256 259" xmlns="http://www.w3.org/2000/svg">
  <defs>
    <linearGradient id="apiary_svg__a" x1="100.012%" x2="0%" y1="49.991%" y2="49.991%">
      <stop offset="0%" stop-color="#37BDA6"/>
      <stop offset="100%" stop-color="#8AD3B8"/>
    </linearGradient>
    <linearGradient id="apiary_svg__b" x1="100.012%" x2="0%" y1="49.998%" y2="49.998%">
      <stop offset="50%" stop-color="#4BB6AD"/>
      <stop offset="100%" stop-color="#78BBC1"/>
    </linearGradient>
    <linearGradient id="apiary_svg__c" x1="-.018%" x2="100.023%" y1="49.998%" y2="49.998%">
      <stop offset="0%" stop-color="#4379A7"/>
      <stop offset="100%" stop-color="#7CC9B8"/>
    </linearGradient>
  </defs>
  <path fill="#13A049" d="M127.693 36.867v73.58l63.847-36.866V0l-63.847 36.867Z" opacity=".5"/>
  <path fill="#A2CC39" d="M127.693 36.867 63.847 0v73.734l63.846 36.867V36.867Z" opacity=".5"/>
  <path fill="url(#apiary_svg__a)" d="m191.54 0-63.847 36.867L63.847 0 0 36.867l127.693 73.734L255.31 36.867 191.54 0Z" opacity=".9"/>
  <path fill="url(#apiary_svg__b)" d="M127.693 110.601 0 36.867v73.734l63.847 36.867v73.658l63.846 36.867 63.847-36.867v-73.658l63.77-36.867V36.867l-127.617 73.734Z"/>
  <path fill="url(#apiary_svg__c)" d="M127.693 110.601v147.392l63.847-36.867v-73.658l63.77-36.867V36.867l-127.617 73.734Z"/>
  <path fill="#231F20" d="M127.693 184.259v73.734l63.847-36.867-63.847-36.867Z" opacity=".05"/>
  <path fill="#231F20" d="M127.693 258.146v-73.734l-63.846 36.867 63.846 36.867Z" opacity=".1"/>
  <path fill="#231F20" d="M63.847 73.734 0 110.601l63.847 36.867 63.846-36.867-63.846-36.867Z" opacity=".05"/>
  <path fill="#231F20" d="m191.54 73.734-63.847 36.867 63.847 36.867 63.77-36.867-63.77-36.867Z" opacity=".05"/>
</svg>
